svg/NEPAnode-EnergyInfrastructure/Hydro.svg

<?xml version="1.0" encoding="UTF-8" standalone="no"?>
<!-- Created with Inkscape (http://www.inkscape.org/) -->

<svg
   xmlns:dc="http://purl.org/dc/elements/1.1/"
   xmlns:cc="http://creativecommons.org/ns#"
   xmlns:rdf="http://www.w3.org/1999/02/22-rdf-syntax-ns#"
   xmlns:svg="http://www.w3.org/2000/svg"
   xmlns="http://www.w3.org/2000/svg"
   xmlns:sodipodi="http://sodipodi.sourceforge.net/DTD/sodipodi-0.dtd"
   xmlns:inkscape="http://www.inkscape.org/namespaces/inkscape"
   version="1.1"
   width="250"
   height="250"
   viewBox="0 0 0.34722222 0.34722222"
   id="svg2"
   inkscape:version="0.48.4 r9939"
   sodipodi:docname="Hydro.svg">
  <sodipodi:namedview
     pagecolor="#ffffff"
     bordercolor="#666666"
     borderopacity="1"
     objecttolerance="10"
     gridtolerance="10"
     guidetolerance="10"
     inkscape:pageopacity="0"
     inkscape:pageshadow="2"
     inkscape:window-width="1360"
     inkscape:window-height="744"
     id="namedview9"
     showgrid="false"
     inkscape:zoom="0.944"
     inkscape:cx="125"
     inkscape:cy="125"
     inkscape:window-x="0"
     inkscape:window-y="24"
     inkscape:window-maximized="1"
     inkscape:current-layer="svg2" />
  <title
     id="title4">SVG drawing</title>
  <desc
     id="desc6">This was produced by version 4.1 of GNU libplot, a free library for exporting 2-D vector graphics.</desc>
  <metadata
     id="metadata3395">
    <rdf:RDF>
      <cc:Work
         rdf:about="">
        <dc:format>image/svg+xml</dc:format>
        <dc:type
           rdf:resource="http://purl.org/dc/dcmitype/StillImage" />
        <dc:title>SVG drawing</dc:title>
      </cc:Work>
    </rdf:RDF>
  </metadata>
  <defs
     id="defs3393" />
  <g
     style="font-size:0.0555556px;font-style:normal;font-variant:normal;font-weight:normal;font-stretch:normal;line-height:125%;letter-spacing:0px;word-spacing:0px;fill:#000000;fill-opacity:1;stroke:none;font-family:Energy Infrastructure;-inkscape-font-specification:Energy Infrastructure"
     id="text7140">
    <path
       d="M 0.17455524,0.00313689 C 0.19816952,0.00313723 0.22040649,0.00766334 0.24126622,0.01671523 0.2621254,0.02576777 0.28022984,0.03796859 0.29557958,0.05331771 0.31092866,0.06866741 0.32312948,0.08677185 0.33218206,0.10763107 0.34123391,0.12849076 0.34576002,0.15072773 0.3457604,0.17434204 0.34576002,0.19795669 0.34123391,0.22019366 0.33218206,0.24105302 0.32312948,0.26191258 0.31092866,0.28001702 0.29557958,0.29536638 0.28022984,0.31071584 0.2621254,0.32291666 0.24126622,0.33196886 0.22040649,0.34102109 0.19816952,0.3455472 0.17455524,0.3455472 0.15094056,0.3455472 0.12870359,0.34102109 0.10784427,0.33196886 0.08698467,0.32291666 0.06888024,0.31071584 0.05353091,0.29536638 0.03818141,0.28001702 0.0259806,0.26191258 0.01692843,0.24105302 0.00787616,0.22019366 0.00335005,0.19795669 0.00335009,0.17434204 0.00335005,0.15072773 0.00787616,0.12849076 0.01692843,0.10763107 0.0259806,0.08677185 0.03818141,0.06866741 0.05353091,0.05331771 0.06888024,0.03796859 0.08698467,0.02576777 0.10784427,0.01671523 0.12870359,0.00766334 0.15094056,0.00313723 0.17455524,0.00313689 M 0.13027805,0.2097638 C 0.13303291,0.20464746 0.1332297,0.19894063 0.13086841,0.19264328 0.1285068,0.18595267 0.12516142,0.17965547 0.12083225,0.17375168 0.11689635,0.16784823 0.11276381,0.16273176 0.10843463,0.15840225 0.10449874,0.15407312 0.1021373,0.15190846 0.10135028,0.15190826 0.10095657,0.15190846 0.10095657,0.15210524 0.10135028,0.15249863 0.10174372,0.15289239 0.10194051,0.15387633 0.10194064,0.15545044 0.10233408,0.15702493 0.10253087,0.15938638 0.10253101,0.16253479 0.10253087,0.16529 0.1021373,0.16922574 0.10135028,0.17434204 0.10095657,0.17670366 0.09997264,0.17965547 0.09839847,0.18319748 0.09682404,0.18634624 0.09544653,0.18988841 0.09426593,0.19382401 0.09308508,0.19775991 0.09249472,0.20169565 0.09249484,0.20563126 0.09288829,0.20917357 0.09485617,0.21232217 0.09839847,0.21507706 0.10351481,0.21940651 0.10922164,0.2211776 0.11551898,0.22039033 0.12181603,0.21920973 0.12673571,0.21566756 0.13027805,0.2097638 M 0.13913349,0.12416122 C 0.14464336,0.12731004 0.15035019,0.1279004 0.156254,0.12593231 0.16255101,0.12357108 0.16688033,0.11904497 0.16924198,0.11235397 0.17081608,0.10684416 0.16983214,0.10113732 0.16629017,0.09523345 0.1627478,0.08933008 0.15841848,0.08382004 0.15330219,0.0787033 0.14818553,0.0735871 0.14306906,0.06945456 0.13795276,0.06630569 0.1332297,0.06315737 0.13047467,0.06158307 0.12968769,0.06158278 0.12890037,0.06158307 0.12929395,0.06276379 0.13086841,0.06512496 0.13244255,0.06709311 0.13342648,0.07299673 0.13382022,0.08283584 0.13382006,0.08519755 0.1332297,0.08834615 0.13204914,0.09228164 0.13126182,0.09582407 0.13067146,0.09956303 0.13027805,0.10349853 0.13027789,0.10743452 0.13067146,0.11137027 0.13145877,0.11530578 0.13263933,0.11884818 0.13519757,0.12179999 0.13913349,0.12416122 M 0.23123005,0.27116151 C 0.23437839,0.26525796 0.23536233,0.25876398 0.23418187,0.25167954 0.23339445,0.24420172 0.23122979,0.2367238 0.22768788,0.22924577 0.22414545,0.22176796 0.21981613,0.21468362 0.2146999,0.20799271 0.20958318,0.2009085 0.20446671,0.19461131 0.19935047,0.18910111 0.19462735,0.18359122 0.19029802,0.1792619 0.1863625,0.17611313 0.18242653,0.17257113 0.1798683,0.17080004 0.17868778,0.17079987 0.17790042,0.17080004 0.17770364,0.17119362 0.17809742,0.17198059 0.17888436,0.17276792 0.17947472,0.174539 0.17986851,0.17729386 0.18065545,0.18004905 0.18104902,0.18398479 0.18104923,0.18910111 0.18144259,0.19382416 0.18085223,0.20051493 0.17927815,0.20917344 0.17849078,0.21350289 0.1767197,0.21881615 0.17396488,0.22511323 0.17120965,0.23101697 0.1688482,0.23731416 0.16688053,0.24400483 0.16530603,0.2506957 0.16471567,0.25738647 0.16510944,0.26407716 0.16589639,0.27076801 0.16943857,0.27667163 0.17573597,0.28178804 0.18006508,0.28572385 0.18478798,0.28828208 0.18990467,0.28946275 0.1954145,0.29064353 0.20072775,0.29084032 0.20584446,0.29005311 0.2109607,0.28887245 0.21568359,0.28670778 0.22001317,0.28355913 0.22473581,0.28041059 0.22847477,0.27627806 0.23123005,0.27116151 M 0.28200124,0.16489624 C 0.28436237,0.15781208 0.28318165,0.15033416 0.27845906,0.14246246 0.27373586,0.1341976 0.26802902,0.12671968 0.26133855,0.12002868 0.25464748,0.11294456 0.24795672,0.10723773 0.24126622,0.10290817 0.23496875,0.09857909 0.23122979,0.09661121 0.23004933,0.09700454 0.22965549,0.09700479 0.22965549,0.09720158 0.23004933,0.0975949 0.23044264,0.09798873 0.231033,0.09916945 0.23182042,0.10113708 0.2326073,0.1031052 0.23339445,0.10605701 0.23418187,0.10999252 0.23496875,0.11353493 0.23536233,0.1186514 0.23536259,0.12534195 0.23536233,0.12888434 0.23457518,0.13321366 0.23300114,0.13832992 0.23182015,0.14305303 0.231033,0.14797271 0.23063969,0.15308899 0.23024585,0.15820565 0.23063943,0.16332212 0.23182042,0.16843842 0.23300088,0.17316149 0.23634626,0.17709724 0.24185658,0.18024567 0.24933423,0.18457516 0.25700893,0.18536231 0.26488072,0.18260712 0.27314549,0.17945868 0.27885233,0.17355506 0.28200124,0.16489624"
       style="font-size:0.59036261px"
       id="path2987" />
  </g>
</svg>

<svg xmlns="http://www.w3.org/2000/svg" width="250" height="250" viewBox="0 0 0.34722222 0.34722222"><path d="m.175.003c.024 0 .046.005.067.014.021.009.039.021.054.037.015.015.028.033.037.054.009.021.014.043.014.067 0 .024-.005.046-.014.067-.009.021-.021.039-.037.054-.015.015-.033.028-.054.037-.021.009-.043.014-.067.014-.024 0-.046-.005-.067-.014-.021-.009-.039-.021-.054-.037-.015-.015-.028-.033-.037-.054-.009-.021-.014-.043-.014-.067 0-.024.005-.046.014-.067.009-.021.021-.039.037-.054.015-.015.033-.028.054-.037.021-.009.043-.014.067-.014m-.044.207c.003-.005.003-.011.0001-.017-.002-.007-.006-.013-.001-.019-.004-.006-.008-.011-.012-.015-.004-.004-.006-.006-.007-.006 0 .0001.0001.002.0001.004 0 .002.0001.004.0001.007 0 .003 0 .007-.0001.012 0 .002-.0001.005-.003.009-.002.003-.003.007-.004.011-.0001.004-.002.008-.002.012 0 .004.002.007.006.009.005.004.011.006.017.005.006-.0001.011-.005.015-.011m.009-.086c.006.003.011.004.017.002.006-.002.011-.007.013-.014.002-.006.0001-.011-.003-.017-.004-.006-.008-.011-.013-.017-.005-.005-.001-.009-.015-.012-.005-.003-.007-.005-.008-.005-.0001 0 0 .0001.0001.004.002.002.003.008.003.018 0 .002-.0001.006-.002.009-.0001.004-.0001.007-.002.011 0 .004 0 .008.0001.012.0001.004.004.006.008.009m.092.147c.003-.006.004-.012.003-.019-.0001-.007-.003-.015-.006-.022-.004-.007-.008-.015-.013-.021-.005-.007-.001-.013-.015-.019-.005-.006-.009-.001-.013-.013-.004-.004-.006-.005-.008-.005-.0001 0-.0001 0-.0001.0001.0001.0001.0001.003.002.005.0001.003.0001.007.0001.012 0 .005 0 .011-.002.02-.0001.004-.003.001-.005.016-.003.006-.005.012-.007.019-.002.007-.002.013-.002.02.0001.007.004.013.011.018.004.004.009.006.014.008.006.0001.011.0001.016.0001.005-.0001.001-.003.014-.006.005-.003.008-.007.011-.012m.051-.106c.002-.007.0001-.015-.004-.022-.005-.008-.001-.016-.017-.022-.007-.007-.013-.013-.02-.017-.006-.004-.001-.006-.011-.006 0 .0001.0001.002.002.004.0001.002.002.005.002.009.0001.004.0001.009.0001.015 0 .004-.0001.008-.002.013-.0001.005-.002.001-.002.015 0 .005 0 .001.0001.015.0001.005.005.009.001.012.007.004.015.005.023.002.008-.003.014-.009.017-.018"/></svg>
